src/assets/wordmark_white.svg

<?xml version="1.0" encoding="UTF-8"?>
<svg id="Layer_1" data-name="Layer 1" xmlns="http://www.w3.org/2000/svg" viewBox="0 0 800 300">
  <defs>
    <style>
      .cls-1 {
        fill: #fff;
      }
    </style>
  </defs>
  <g id="wordmark_white">
    <g>
      <path class="cls-1" d="M210.8,137.97v4.59c-1.48-.86-3.65-1.32-5.83-1.32-6.92,0-12.05,4.59-12.05,13.14v22.23h-4.66v-38.63h4.43v8.63c1.56-4.97,5.91-9.64,12.83-9.64,1.71,0,3.89.39,5.29,1.01Z"/>
      <path class="cls-1" d="M212.75,157.32c0-11.81,9.02-20.36,20.13-20.36s20.13,8.63,20.13,20.36-8.86,20.37-20.13,20.37-20.13-8.55-20.13-20.37ZM248.5,157.32c0-9.64-6.68-16.24-15.62-16.24s-15.62,6.61-15.62,16.24,6.92,16.17,15.62,16.17,15.62-6.61,15.62-16.17Z"/>
      <path class="cls-1" d="M297.32,118.3v58.3h-4.43v-9.41c-2.72,6.69-8.39,10.49-15.39,10.49-10.57,0-18.57-8.24-18.57-20.29s8-20.44,18.57-20.44c6.76,0,12.36,3.58,15.16,9.95v-28.6h4.67ZM293.28,157.32c0-9.64-6.53-16.24-15-16.24s-14.85,6.3-14.85,16.32,6.37,16.09,14.85,16.09,15-6.53,15-16.17Z"/>
      <path class="cls-1" d="M307.28,160.35v-22.39h4.67v22.39c0,8.01,4.58,13.14,11.97,13.14s11.97-5.13,11.97-13.14v-22.39h4.67v22.39c0,10.88-6.53,17.33-16.63,17.33s-16.63-6.45-16.63-17.33Z"/>
      <path class="cls-1" d="M348.33,157.32c0-11.74,8.55-20.36,20.36-20.36,3.42,0,6.61.78,9.1,2.25l-.08,4.12c-2.18-1.32-5.13-2.25-8.78-2.25-9.33,0-16.09,6.76-16.09,16.24s6.84,16.17,16.09,16.17c3.65,0,6.61-.93,8.78-2.25l.08,4.12c-2.49,1.48-5.67,2.33-9.1,2.33-11.89,0-20.36-8.63-20.36-20.37Z"/>
      <path class="cls-1" d="M395.36,142.08v22.93c0,5.44,2.41,8.24,7.07,8.24,2.02,0,4.2-.54,5.6-1.4v4.28c-1.56.93-4.04,1.56-6.3,1.56-7.07,0-11.04-4.66-11.04-12.67v-22.93h-6.84v-4.12h6.84v-11.89h4.66v11.89h12.67v4.12h-12.67Z"/>
      <path class="cls-1" d="M493.55,158.56h-31.56c.54,9.95,6.22,15,16.09,15,5.75,0,10.73-1.71,13.84-3.81v4.2c-3.65,2.41-9.17,3.73-14.22,3.73-12.75,0-20.21-7.62-20.21-20.68,0-12.13,8.01-20.05,18.81-20.05s17.49,7.62,17.49,18.81c0,.93-.08,1.86-.23,2.8ZM461.99,154.75h27.44c-.23-8.39-4.58-13.91-13.21-13.91-7.77,0-13.45,5.05-14.22,13.91Z"/>
      <path class="cls-1" d="M535.53,158.56h-31.56c.54,9.95,6.22,15,16.09,15,5.75,0,10.73-1.71,13.83-3.81v4.2c-3.65,2.41-9.17,3.73-14.22,3.73-12.75,0-20.21-7.62-20.21-20.68,0-12.13,8-20.05,18.81-20.05s17.49,7.62,17.49,18.81c0,.93-.08,1.86-.23,2.8ZM503.97,154.75h27.44c-.23-8.39-4.59-13.91-13.22-13.91-7.77,0-13.45,5.05-14.22,13.91Z"/>
      <path class="cls-1" d="M582.8,157.16c0,11.74-8.08,20.52-18.89,20.52-6.84,0-12.44-3.5-15.31-9.87v24.72h-4.66v-54.56h4.43v9.25c2.8-6.53,8.47-10.26,15.55-10.26,10.88,0,18.89,8.63,18.89,20.21ZM578.29,157.16c0-9.41-6.45-16.17-15.16-16.17s-15.16,6.68-15.16,16.24,6.53,16.25,15.16,16.25,15.16-6.76,15.16-16.32Z"/>
      <path class="cls-1" d="M624.78,158.56h-31.56c.54,9.95,6.22,15,16.09,15,5.75,0,10.73-1.71,13.83-3.81v4.2c-3.65,2.41-9.17,3.73-14.22,3.73-12.75,0-20.21-7.62-20.21-20.68,0-12.13,8-20.05,18.81-20.05s17.49,7.62,17.49,18.81c0,.93-.08,1.86-.23,2.8ZM593.22,154.75h27.44c-.23-8.39-4.59-13.91-13.22-13.91-7.77,0-13.45,5.05-14.22,13.91Z"/>
      <path class="cls-1" d="M655.73,137.97v4.59c-1.48-.86-3.65-1.32-5.83-1.32-6.92,0-12.05,4.59-12.05,13.14v22.23h-4.66v-38.63h4.43v8.63c1.56-4.97,5.91-9.64,12.83-9.64,1.71,0,3.89.39,5.29,1.01Z"/>
    </g>
    <g>
      <path class="cls-1" d="M157.69,158.45h-.14c-2.71,0-5.41,0-8.12,0h-3.58c-1.03,0-1.87-.84-1.87-1.87s.84-1.87,1.87-1.87h3.58c2.71,0,5.42,0,8.13,0,4.65.02,8.26-.78,11.33-2.5,4.11-2.3,6.7-5.39,7.69-9.19,1.85-7.06-1.56-13.41-9.14-16.99-2.01-.95-4.45-1.48-7.68-1.67-.95-.06-.98-.06-1.69-.06h-.27c-1.03,0-1.87-.85-1.86-1.89,0-1.03.84-1.86,1.87-1.86h.28c.8,0,.83,0,1.89.07,3.73.22,6.6.86,9.06,2.02,9.2,4.34,13.48,12.51,11.16,21.32-1.27,4.82-4.46,8.69-9.49,11.51-3.58,2-7.84,2.98-13.03,2.98Z"/>
      <path class="cls-1" d="M144.32,177.34h0c-1.03,0-1.87-.84-1.87-1.88v-19.36c0-.48,0-.95.02-1.43.02-1.05.03-2.04-.03-3.02-.07-.98-.02-1.93.02-2.84.03-.61.06-1.22.05-1.83-.08-5.17-.07-10.42-.07-15.49,0-2.44,0-4.89,0-7.33,0-.71.07-1.43.21-2.13.17-.82.91-2.79,4.25-3.37,1.87-.33,3.54-.08,4.94.74,1.91,1.11,2.33,2.64,2.35,3.74.02,1.64.02,3.27.01,4.91v1.83c0,.41.02,1.1-.45,1.81-.58.86-1.74,1.09-2.6.51-.74-.5-1.01-1.44-.7-2.24v-.07s0-1.83,0-1.83c0-1.62,0-3.23-.01-4.85,0-.14,0-.28-.48-.55-.64-.37-1.41-.46-2.43-.28-.84.14-1.18.4-1.23.47-.07.41-.12.87-.12,1.32,0,2.45,0,4.9,0,7.34,0,5.06-.01,10.29.07,15.43,0,.69-.02,1.38-.05,2.07-.04.84-.08,1.64-.03,2.41.08,1.13.06,2.25.04,3.33,0,.46-.01.91-.01,1.37v19.37c0,1.03-.84,1.87-1.87,1.87Z"/>
    </g>
    <g>
      <path class="cls-1" d="M416.05,176.54c-1.03,0-1.87-.84-1.87-1.87v-6c0-6.4,0-12.79,0-19.19,0-.92,0-2.29.91-3.6-.91-1.33-.91-2.69-.91-3.6v-3.84c0-4.89,0-6.63,0-7.17h0v-.14s0-.02,0-.04v-.04h0c0-.07,0-.14.02-.21-.02-.44-.02-.94-.02-1.5v-9.3c0-1.03.84-1.87,1.87-1.87s1.87.84,1.87,1.87c0,7.86,0,10.34,0,11.01h0s0,.06,0,.09v.12h0s0,.08,0,.11c.02.32.02.65.02.98v9.93c0,.77.03,1.17.24,1.46.95,1.32.95,2.95,0,4.27-.21.29-.25.69-.24,1.46,0,6.4,0,12.79,0,19.19v6c0,1.03-.84,1.87-1.87,1.87Z"/>
      <path class="cls-1" d="M452.45,176.45c-1.46,0-2.52-.89-2.97-1.27-3.32-2.79-6.76-5.56-10.09-8.25-1.53-1.24-3.06-2.47-4.59-3.71-1.67-1.36-3.33-2.72-4.99-4.08-4.52-3.7-9.2-7.53-13.87-11.19-.81-.64-.96-1.81-.32-2.63.64-.81,1.82-.96,2.63-.32,4.7,3.68,9.39,7.52,13.93,11.24,1.66,1.36,3.32,2.72,4.98,4.07,1.52,1.24,3.05,2.47,4.58,3.71,3.34,2.7,6.79,5.48,10.14,8.29.39.33.54.38.58.39,1-.26,2.01.33,2.28,1.33s-.34,2.02-1.34,2.29c-.33.09-.65.13-.95.13Z"/>
      <path class="cls-1" d="M417.1,147.16c-.69,0-1.36-.39-1.68-1.05-.45-.93-.07-2.05.86-2.5.73-.36,1.36-1,1.99-1.69,3.54-3.85,7.18-7.71,10.71-11.45,2.94-3.12,5.88-6.24,8.79-9.38.95-1.02,2.27-2.25,4.13-2.64,3.13-.67,5.71.44,7.26,3.13,1.25,2.18.35,5.8-1.3,7.59-3.24,3.53-6.59,7.17-10.09,10.7-.73.73-1.91.74-2.65.01s-.74-1.91-.01-2.65c3.45-3.48,6.77-7.09,9.99-10.59.82-.89,1.05-2.74.81-3.2-.73-1.27-1.7-1.67-3.23-1.33-.67.14-1.29.59-2.17,1.53-2.92,3.15-5.87,6.28-8.81,9.4-3.51,3.73-7.15,7.59-10.67,11.42-.85.92-1.78,1.87-3.1,2.52-.27.13-.55.19-.82.19Z"/>
    </g>
  </g>
</svg>

<?xml version="1.0" encoding="UTF-8" standalone="no"?>
<!DOCTYPE svg PUBLIC "-//W3C//DTD SVG 1.1//EN" "http://www.w3.org/Graphics/SVG/1.1/DTD/svg11.dtd">
<svg width="100%" height="100%" viewBox="0 0 520 75" version="1.1" xmlns="http://www.w3.org/2000/svg" xmlns:xlink="http://www.w3.org/1999/xlink" xml:space="preserve" xmlns:serif="http://www.serif.com/" style="fill-rule:evenodd;clip-rule:evenodd;stroke-linejoin:round;stroke-miterlimit:2;">
    <g id="wordmark_white" transform="matrix(0.999953,0,0,1.00054,-139.054,-117.934)">
        <g>
            <clipPath id="_clip1">
                <rect x="140.416" y="118.3" width="515.324" height="74.23"/>
            </clipPath>
            <g clip-path="url(#_clip1)">
                <path d="M210.8,137.97L210.8,142.56C209.32,141.7 207.15,141.24 204.97,141.24C198.05,141.24 192.92,145.83 192.92,154.38L192.92,176.61L188.26,176.61L188.26,137.98L192.69,137.98L192.69,146.61C194.25,141.64 198.6,136.97 205.52,136.97C207.23,136.97 209.41,137.36 210.81,137.98L210.8,137.97Z" style="fill:white;fill-rule:nonzero;"/>
                <path d="M212.75,157.32C212.75,145.51 221.77,136.96 232.88,136.96C243.99,136.96 253.01,145.59 253.01,157.32C253.01,169.05 244.15,177.69 232.88,177.69C221.61,177.69 212.75,169.14 212.75,157.32ZM248.5,157.32C248.5,147.68 241.82,141.08 232.88,141.08C223.94,141.08 217.26,147.69 217.26,157.32C217.26,166.95 224.18,173.49 232.88,173.49C241.58,173.49 248.5,166.88 248.5,157.32Z" style="fill:white;fill-rule:nonzero;"/>
                <path d="M297.32,118.3L297.32,176.6L292.89,176.6L292.89,167.19C290.17,173.88 284.5,177.68 277.5,177.68C266.93,177.68 258.93,169.44 258.93,157.39C258.93,145.34 266.93,136.95 277.5,136.95C284.26,136.95 289.86,140.53 292.66,146.9L292.66,118.3L297.33,118.3L297.32,118.3ZM293.28,157.32C293.28,147.68 286.75,141.08 278.28,141.08C269.81,141.08 263.43,147.38 263.43,157.4C263.43,167.42 269.8,173.49 278.28,173.49C286.76,173.49 293.28,166.96 293.28,157.32Z" style="fill:white;fill-rule:nonzero;"/>
                <path d="M307.28,160.35L307.28,137.96L311.95,137.96L311.95,160.35C311.95,168.36 316.53,173.49 323.92,173.49C331.31,173.49 335.89,168.36 335.89,160.35L335.89,137.96L340.56,137.96L340.56,160.35C340.56,171.23 334.03,177.68 323.93,177.68C313.83,177.68 307.3,171.23 307.3,160.35L307.28,160.35Z" style="fill:white;fill-rule:nonzero;"/>
                <path d="M348.33,157.32C348.33,145.58 356.88,136.96 368.69,136.96C372.11,136.96 375.3,137.74 377.79,139.21L377.71,143.33C375.53,142.01 372.58,141.08 368.93,141.08C359.6,141.08 352.84,147.84 352.84,157.32C352.84,166.8 359.68,173.49 368.93,173.49C372.58,173.49 375.54,172.56 377.71,171.24L377.79,175.36C375.3,176.84 372.12,177.69 368.69,177.69C356.8,177.69 348.33,169.06 348.33,157.32Z" style="fill:white;fill-rule:nonzero;"/>
                <path d="M395.36,142.08L395.36,165.01C395.36,170.45 397.77,173.25 402.43,173.25C404.45,173.25 406.63,172.71 408.03,171.85L408.03,176.13C406.47,177.06 403.99,177.69 401.73,177.69C394.66,177.69 390.69,173.03 390.69,165.02L390.69,142.09L383.85,142.09L383.85,137.97L390.69,137.97L390.69,126.08L395.35,126.08L395.35,137.97L408.02,137.97L408.02,142.09L395.35,142.09L395.36,142.08Z" style="fill:white;fill-rule:nonzero;"/>
                <path d="M493.56,158.56L461.99,158.56C462.53,168.51 468.21,173.56 478.08,173.56C483.83,173.56 488.81,171.85 491.92,169.75L491.92,173.95C488.27,176.36 482.75,177.68 477.7,177.68C464.95,177.68 457.49,170.06 457.49,157C457.49,144.87 465.5,136.95 476.3,136.95C487.1,136.95 493.79,144.57 493.79,155.76C493.79,156.69 493.71,157.62 493.56,158.56ZM461.99,154.75L489.43,154.75C489.2,146.36 484.85,140.84 476.22,140.84C468.45,140.84 462.77,145.89 462,154.75L461.99,154.75Z" style="fill:white;fill-rule:nonzero;"/>
                <path d="M535.53,158.56L503.97,158.56C504.51,168.51 510.19,173.56 520.06,173.56C525.81,173.56 530.79,171.85 533.89,169.75L533.89,173.95C530.24,176.36 524.72,177.68 519.67,177.68C506.92,177.68 499.46,170.06 499.46,157C499.46,144.87 507.46,136.95 518.27,136.95C529.08,136.95 535.76,144.57 535.76,155.76C535.76,156.69 535.68,157.62 535.53,158.56ZM503.97,154.75L531.41,154.75C531.18,146.36 526.82,140.84 518.19,140.84C510.42,140.84 504.74,145.89 503.97,154.75Z" style="fill:white;fill-rule:nonzero;"/>
                <path d="M582.8,157.16C582.8,168.9 574.72,177.68 563.91,177.68C557.07,177.68 551.47,174.18 548.6,167.81L548.6,192.53L543.94,192.53L543.94,137.97L548.37,137.97L548.37,147.22C551.17,140.69 556.84,136.96 563.92,136.96C574.8,136.96 582.81,145.59 582.81,157.17L582.8,157.16ZM578.29,157.16C578.29,147.75 571.84,140.99 563.13,140.99C554.42,140.99 547.97,147.67 547.97,157.23C547.97,166.79 554.5,173.48 563.13,173.48C571.76,173.48 578.29,166.72 578.29,157.16Z" style="fill:white;fill-rule:nonzero;"/>
                <path d="M624.78,158.56L593.22,158.56C593.76,168.51 599.44,173.56 609.31,173.56C615.06,173.56 620.04,171.85 623.14,169.75L623.14,173.95C619.49,176.36 613.97,177.68 608.92,177.68C596.17,177.68 588.71,170.06 588.71,157C588.71,144.87 596.71,136.95 607.52,136.95C618.33,136.95 625.01,144.57 625.01,155.76C625.01,156.69 624.93,157.62 624.78,158.56ZM593.22,154.75L620.66,154.75C620.43,146.36 616.07,140.84 607.44,140.84C599.67,140.84 593.99,145.89 593.22,154.75Z" style="fill:white;fill-rule:nonzero;"/>
                <path d="M655.73,137.97L655.73,142.56C654.25,141.7 652.08,141.24 649.9,141.24C642.98,141.24 637.85,145.83 637.85,154.38L637.85,176.61L633.19,176.61L633.19,137.98L637.62,137.98L637.62,146.61C639.18,141.64 643.53,136.97 650.45,136.97C652.16,136.97 654.34,137.36 655.74,137.98L655.73,137.97Z" style="fill:white;fill-rule:nonzero;"/>
            </g>
        </g>
        <g>
            <path d="M157.69,158.45L145.85,158.45C144.82,158.45 143.98,157.61 143.98,156.58C143.98,155.55 144.82,154.71 145.85,154.71L157.56,154.71C162.21,154.73 165.82,153.93 168.89,152.21C173,149.91 175.59,146.82 176.58,143.02C178.43,135.96 175.02,129.61 167.44,126.03C165.43,125.08 162.99,124.55 159.76,124.36C158.81,124.3 158.78,124.3 158.07,124.3L157.8,124.3C156.77,124.3 155.93,123.45 155.94,122.41C155.94,121.38 156.78,120.55 157.81,120.55L158.09,120.55C158.89,120.55 158.92,120.55 159.98,120.62C163.71,120.84 166.58,121.48 169.04,122.64C178.24,126.98 182.52,135.15 180.2,143.96C178.93,148.78 175.74,152.65 170.71,155.47C167.13,157.47 162.87,158.45 157.68,158.45L157.69,158.45Z" style="fill:white;fill-rule:nonzero;"/>
            <path d="M144.32,177.34C143.29,177.34 142.45,176.5 142.45,175.46L142.45,156.1C142.45,155.62 142.45,155.15 142.47,154.67C142.49,153.62 142.5,152.63 142.44,151.65C142.37,150.67 142.42,149.72 142.46,148.81C142.49,148.2 142.52,147.59 142.51,146.98C142.43,141.81 142.44,136.56 142.44,131.49L142.44,124.16C142.44,123.45 142.51,122.73 142.65,122.03C142.82,121.21 143.56,119.24 146.9,118.66C148.77,118.33 150.44,118.58 151.84,119.4C153.75,120.51 154.17,122.04 154.19,123.14C154.21,124.78 154.21,126.41 154.2,128.05L154.2,129.88C154.2,130.29 154.22,130.98 153.75,131.69C153.17,132.55 152.01,132.78 151.15,132.2C150.41,131.7 150.14,130.76 150.45,129.96L150.45,128.06C150.45,126.44 150.45,124.83 150.44,123.21C150.44,123.07 150.44,122.93 149.96,122.66C149.32,122.29 148.55,122.2 147.53,122.38C146.69,122.52 146.35,122.78 146.3,122.85C146.23,123.26 146.18,123.72 146.18,124.17L146.18,131.51C146.18,136.57 146.17,141.8 146.25,146.94C146.25,147.63 146.23,148.32 146.2,149.01C146.16,149.85 146.12,150.65 146.17,151.42C146.25,152.55 146.23,153.67 146.21,154.75C146.21,155.21 146.2,155.66 146.2,156.12L146.2,175.49C146.2,176.52 145.36,177.36 144.33,177.36L144.32,177.34Z" style="fill:white;fill-rule:nonzero;"/>
        </g>
        <g>
            <path d="M416.05,176.54C415.02,176.54 414.18,175.7 414.18,174.67L414.18,149.48C414.18,148.56 414.18,147.19 415.09,145.88C414.18,144.55 414.18,143.19 414.18,142.28L414.18,131.05C414.18,130.98 414.18,130.91 414.2,130.84C414.18,130.4 414.18,129.9 414.18,129.34L414.18,120.04C414.18,119.01 415.02,118.17 416.05,118.17C417.08,118.17 417.92,119.01 417.92,120.04L417.92,131.05C417.92,131.72 417.92,131.11 417.92,131.14L417.92,131.37C417.94,131.69 417.94,132.02 417.94,132.35L417.94,142.28C417.94,143.05 417.97,143.45 418.18,143.74C419.13,145.06 419.13,146.69 418.18,148.01C417.97,148.3 417.93,148.7 417.94,149.47L417.94,174.66C417.94,175.69 417.1,176.53 416.07,176.53L416.05,176.54Z" style="fill:white;fill-rule:nonzero;"/>
            <path d="M452.45,176.45C450.99,176.45 449.93,175.56 449.48,175.18C446.16,172.39 442.72,169.62 439.39,166.93C437.86,165.69 436.33,164.46 434.8,163.22C433.13,161.86 431.47,160.5 429.81,159.14C425.29,155.44 420.61,151.61 415.94,147.95C415.13,147.31 414.98,146.14 415.62,145.32C416.26,144.51 417.44,144.36 418.25,145C422.95,148.68 427.64,152.52 432.18,156.24C433.84,157.6 435.5,158.96 437.16,160.31C438.68,161.55 440.21,162.78 441.74,164.02C445.08,166.72 448.53,169.5 451.88,172.31C452.27,172.64 452.42,172.69 452.46,172.7C453.46,172.44 454.47,173.03 454.74,174.03C455.01,175.03 454.4,176.05 453.4,176.32C453.07,176.41 452.75,176.45 452.45,176.45Z" style="fill:white;fill-rule:nonzero;"/>
            <path d="M417.1,147.16C416.41,147.16 415.74,146.77 415.42,146.11C414.97,145.18 415.35,144.06 416.28,143.61C417.01,143.25 417.64,142.61 418.27,141.92C421.81,138.07 425.45,134.21 428.98,130.47C431.92,127.35 434.86,124.23 437.77,121.09C438.72,120.07 440.04,118.84 441.9,118.45C445.03,117.78 447.61,118.89 449.16,121.58C450.41,123.76 449.51,127.38 447.86,129.17C444.62,132.7 441.27,136.34 437.77,139.87C437.04,140.6 435.86,140.61 435.12,139.88C434.38,139.15 434.38,137.97 435.11,137.23C438.56,133.75 441.88,130.14 445.1,126.64C445.92,125.75 446.15,123.9 445.91,123.44C445.18,122.17 444.21,121.77 442.68,122.11C442.01,122.25 441.39,122.7 440.51,123.64C437.59,126.79 434.64,129.92 431.7,133.04C428.19,136.77 424.55,140.63 421.03,144.46C420.18,145.38 419.25,146.33 417.93,146.98C417.66,147.11 417.38,147.17 417.11,147.17L417.1,147.16Z" style="fill:white;fill-rule:nonzero;"/>
        </g>
    </g>
</svg>
